dataset/google-slides/icon.svg

<?xml version="1.0" encoding="UTF-8" standalone="no"?>
<svg
   viewBox="0 0 128 128"
   style="display:inline;enable-background:new"
   version="1.0"
   id="svg11300"
   height="128"
   width="128"
   xml:space="preserve"
   xmlns:xlink="http://www.w3.org/1999/xlink"
   xmlns="http://www.w3.org/2000/svg"
   xmlns:svg="http://www.w3.org/2000/svg"
   xmlns:rdf="http://www.w3.org/1999/02/22-rdf-syntax-ns#"
   xmlns:cc="http://creativecommons.org/ns#"
   xmlns:dc="http://purl.org/dc/elements/1.1/"><title
     id="title4162">Adwaita Icon Template</title><defs
     id="defs3"><linearGradient
       id="linearGradient13"><stop
         style="stop-color:#f59307;stop-opacity:1;"
         offset="0"
         id="stop8" /><stop
         id="stop9"
         offset="0.04166667"
         style="stop-color:#fbd96a;stop-opacity:1;" /><stop
         style="stop-color:#f59307;stop-opacity:1;"
         offset="0.08333334"
         id="stop10" /><stop
         id="stop11"
         offset="0.91666669"
         style="stop-color:#f59307;stop-opacity:0.95294118;" /><stop
         style="stop-color:#fad96b;stop-opacity:1;"
         offset="0.95833331"
         id="stop12" /><stop
         style="stop-color:#f59307;stop-opacity:1;"
         offset="1"
         id="stop13" /></linearGradient><linearGradient
       xlink:href="#linearGradient13"
       id="linearGradient2"
       x1="-125.09412"
       y1="68.309952"
       x2="-38.622375"
       y2="68.309952"
       gradientUnits="userSpaceOnUse"
       gradientTransform="matrix(1.0176735,0,0,0.98181817,147.30497,-1.0679498)" /></defs><metadata
     id="metadata4"><rdf:RDF><cc:Work
         rdf:about=""><dc:format>image/svg+xml</dc:format><dc:type
           rdf:resource="http://purl.org/dc/dcmitype/StillImage" /><dc:creator><cc:Agent><dc:title>GNOME Design Team</dc:title></cc:Agent></dc:creator><dc:source /><cc:license
           rdf:resource="http://creativecommons.org/licenses/by-sa/4.0/" /><dc:title>Adwaita Icon Template</dc:title><dc:subject><rdf:Bag /></dc:subject><dc:date /><dc:rights><cc:Agent><dc:title /></cc:Agent></dc:rights><dc:publisher><cc:Agent><dc:title /></cc:Agent></dc:publisher><dc:identifier /><dc:relation /><dc:language /><dc:coverage /><dc:description /><dc:contributor><cc:Agent><dc:title /></cc:Agent></dc:contributor></cc:Work><cc:License
         rdf:about="http://creativecommons.org/licenses/by-sa/4.0/"><cc:permits
           rdf:resource="http://creativecommons.org/ns#Reproduction" /><cc:permits
           rdf:resource="http://creativecommons.org/ns#Distribution" /><cc:requires
           rdf:resource="http://creativecommons.org/ns#Notice" /><cc:requires
           rdf:resource="http://creativecommons.org/ns#Attribution" /><cc:permits
           rdf:resource="http://creativecommons.org/ns#DerivativeWorks" /><cc:requires
           rdf:resource="http://creativecommons.org/ns#ShareAlike" /></cc:License></rdf:RDF></metadata><path
     style="display:inline;fill:url(#linearGradient2);fill-opacity:1;stroke:none;stroke-width:0.122717;stroke-linejoin:round;stroke-miterlimit:4;stroke-dasharray:none;stroke-opacity:1;enable-background:new"
     clip-path="none"
     d="M 27.996064,11.999999 H 77.971101 L 107.999,40.849395 108,112.2644 c 8e-5,4.27372 -3.61039,7.7356 -8.040179,7.7356 H 27.996002 c -4.42978,0 -7.996003,-3.44058 -7.996003,-7.71429 V 19.714284 c 0,-4.273713 3.566223,-7.714285 7.996003,-7.714285 z"
     id="path1" /><path
     style="display:inline;fill:#f8bf08;fill-opacity:1;stroke:none;stroke-width:0.122717;stroke-linejoin:round;stroke-miterlimit:4;stroke-dasharray:none;stroke-opacity:1;enable-background:new"
     clip-path="none"
     d="M 27.996064,7.9999994 H 77.9711 L 107.999,36.849395 108,108.2644 c 8e-5,4.27372 -3.61039,7.7356 -8.040183,7.7356 H 27.996003 C 23.566223,116 20,112.55942 20,108.28571 V 15.714284 c 0,-4.273713 3.566223,-7.7142846 7.996003,-7.7142846 z"
     id="path4411" /><path
     style="display:inline;vector-effect:none;fill:#f59307;fill-opacity:1;stroke:none;stroke-width:0.122717;stroke-linecap:butt;stroke-linejoin:round;stroke-miterlimit:4;stroke-dasharray:none;stroke-dashoffset:0;stroke-opacity:1;enable-background:new"
     d="M 77.971101,7.9999414 V 29.214227 c 0,4.273714 3.608727,7.640468 8.038515,7.640468 l 21.989384,-0.0053 z"
     id="path4413" /><style
     type="text/css"
     id="style1">
	.st0{fill:#F8BF08;}
	.st1{fill:#F59307;}
	.st2{fill:#FDFFFF;}
</style><path
     class="st2"
     d="M 39.454546,50.340908 V 84.704543 H 88.545454 V 50.340908 Z M 82.409091,78.56818 H 45.59091 V 56.477271 h 36.818181 z"
     id="path3-3"
     style="stroke-width:1.22727" /></svg>

<svg xmlns="http://www.w3.org/2000/svg" xmlns:xlink="http://www.w3.org/1999/xlink" xml:space="preserve" width="128" height="128" style="display:inline" viewBox="0 0 128 128"><title>Adwaita Icon Template</title><defs><linearGradient id="a"><stop offset="0" style="stop-color:#f59307;stop-opacity:1"/><stop offset=".042" style="stop-color:#fbd96a;stop-opacity:1"/><stop offset=".083" style="stop-color:#f59307;stop-opacity:1"/><stop offset=".917" style="stop-color:#f59307;stop-opacity:.95294118"/><stop offset=".958" style="stop-color:#fad96b;stop-opacity:1"/><stop offset="1" style="stop-color:#f59307;stop-opacity:1"/></linearGradient><linearGradient xlink:href="#a" id="b" x1="-125.094" x2="-38.622" y1="68.31" y2="68.31" gradientTransform="matrix(1.01767 0 0 .98182 147.305 -1.068)" gradientUnits="userSpaceOnUse"/></defs><path d="M27.996 12h49.975L108 40.85l.001 71.414c0 4.274-3.61 7.736-8.04 7.736H27.996c-4.43 0-7.996-3.44-7.996-7.714V19.714C20 15.441 23.566 12 27.996 12" style="display:inline;fill:url(#b);fill-opacity:1;stroke:none;stroke-width:.122717;stroke-linejoin:round;stroke-miterlimit:4;stroke-dasharray:none;stroke-opacity:1"/><path d="M27.996 8h49.975L108 36.85l.001 71.414c0 4.274-3.61 7.736-8.04 7.736H27.996c-4.43 0-7.996-3.44-7.996-7.714V15.714C20 11.441 23.566 8 27.996 8" style="display:inline;fill:#f8bf08;fill-opacity:1;stroke:none;stroke-width:.122717;stroke-linejoin:round;stroke-miterlimit:4;stroke-dasharray:none;stroke-opacity:1"/><path d="M77.971 8v21.214c0 4.274 3.609 7.64 8.039 7.64l21.989-.005z" style="display:inline;vector-effect:none;fill:#f59307;fill-opacity:1;stroke:none;stroke-width:.122717;stroke-linecap:butt;stroke-linejoin:round;stroke-miterlimit:4;stroke-dasharray:none;stroke-dashoffset:0;stroke-opacity:1"/><path d="M39.455 50.34v34.365h49.09V50.34Zm42.954 28.228H45.591v-22.09h36.818z" style="fill:#fdffff;stroke-width:1.22727"/></svg>
